X:1
T: Pottinger's Reel
C: Tom Anderson
C: from Aly Bain and Boys of the Lough
C: arr. T. Traub 8-14-2014
M: C|
R: reel
K: F
|: C|"F"F3 c AFFe|"F"fgfc AFFA|"Gm"G^FGA BABd|"Bb"gfed "C"eccA|
"F"F3 c AFFe|"F"fgfc AFFA|"Bb"BcdB "F" ABcA|"C"cBAG "F"AF F :|
|: e|"F"f2 cf Afcf|"F"faga fccf|"Gm"[gB] [g2B2] f [g3B3] a|"Bb"bagf "C"ecce|
"F"f2 cf Afcf|"F"faga fccA|"Bb"BcdB "F"ABcA|"C"cBAG "F"AF F :|
